X:1
T:The Wraggle-taggle Gypsies
M:4/4
L:1/8
K:G
B-A| G2 F2 E2B-A| GF F2 E3 B| e2 e2 e2 fe| d2 B2 B2| z c| d2 d2 e2 BB|\
 dc B2 A3 A| B2 Bc BA GF| G2 E2 E2||
